X:5394
T:Flowers of Red Hill, The
T:Clogher Reel
R:reel
D:De Danann: Selected Jigs and Reels
D:Bothy Band: 1975
Z:hn-reel-759
M:C|
K:Ador
|:eA~A2 gAfA|eA~A2 eAdA|eA~A2 e2af|gedB GABd:|
eaag bgag|eaag egdg|ea~a2 bgag|~e2de gdBd|
ea~a2 bgag|egfa ~g3a|bg~g2 agfg|eaag edBd||
